X:1
T: Lass O' Loudon
T: 8x32 S 3C
P: Miss Agness Loudon
C: Lowe's Fifth Collection
C: From Nan Main/The Ashley Album
C: As played by Muriel Johnstone/A Dancer's Miscellany Vol. I
C: Arr. Terry Traub, May 30, 2003
M: 4/4
L: 1/8
K: Bb
d>e |"Bb" f>g f<b d>e d<f|"Bb"B>c B<d F>G F<d|"Eb"e>d e<g "Bb"f<d c>B|"Cm"G>c e/d/c/B/ "F"A<c cd/e/|
"Bb" f>g f<b d>e d<f|"Bb"B>c B<d F>G F<D|"Eb"E/G/B/e/ g<b "Bb"f<d c>g|"F"f>d e/d/c/B/ "Bb"F<B B||
D/E/|"Bb"F>D F<B "Eb"G<E c>d|"Cm"e>d c>B "F"A<c cD/E/|"Bb"F>D F<B "Eb"G<E "Cm"g>f|"F"e>d c>B "Bb"F<B BD/E/|
"Bb"F>D F<B "Eb"G<E c>d|"Cm"e>d c>B "F"A<c cB/A/|"Eb"G<E g>f "Cm" ed cB|"F"A/B/c/A/ F>e "Bb"d<B B |]
